icons/folder-astro.svg

<!--
  - The MIT License (MIT)
  -
  - Copyright (c) 2015-2024 Elior "Mallowigi" Boukhobza
  -
  - Permission is hereby granted, free of charge, to any person obtaining a copy
  - of this software and associated documentation files (the "Software"), to deal
  - in the Software without restriction, including without limitation the rights
  - to use, copy, modify, merge, publish, distribute, sublicense, and/or sell
  - copies of the Software, and to permit persons to whom the Software is
  - furnished to do so, subject to the following conditions:
  -
  - The above copyright notice and this permission notice shall be included in all
  - copies or substantial portions of the Software.
  -
  - THE SOFTWARE IS PROVIDED "AS IS", WITHOUT WARRANTY OF ANY KIND, EXPRESS OR
  - IMPLIED, INCLUDING BUT NOT LIMITED TO THE WARRANTIES OF MERCHANTABILITY,
  - FITNESS FOR A PARTICULAR PURPOSE AND NONINFRINGEMENT. IN NO EVENT SHALL THE
  - AUTHORS OR COPYRIGHT HOLDERS BE LIABLE FOR ANY CLAIM, DAMAGES OR OTHER
  - LIABILITY, WHETHER IN AN ACTION OF CONTRACT, TORT OR OTHERWISE, ARISING FROM,
  - OUT OF OR IN CONNECTION WITH THE SOFTWARE OR THE USE OR OTHER DEALINGS IN THE
  - SOFTWARE.
  -
  -->

<svg  width="16px" height="16px" viewBox="0 0 32 32" xmlns="http://www.w3.org/2000/svg">
  <path
      d="M13.8438 7.53645L12.5563 6.46355C12.1968 6.16403 11.7438 6 11.2759 6H4C3.46957 6 2.96086 6.21071 2.58579 6.58579C2.21071 6.96086 2 7.46957 2 8V24C2 24.5304 2.21071 25.0391 2.58579 25.4142C2.96086 25.7893 3.46957 26 4 26H28C28.5304 26 29.0391 25.7893 29.4142 25.4142C29.7893 25.0391 30 24.5304 30 24V10C30 9.46957 29.7893 8.96086 29.4142 8.58579C29.0391 8.21071 28.5304 8 28 8H15.1241C14.6563 8 14.2032 7.83597 13.8438 7.53645Z"
      fill="#FF5D01" data-folderColor="Astro"/>
  <g fill="#ffcdd2" data-folderIconColor="Astro">
    <path
        d="M22.4514 28.6279C21.6715 27.9671 21.4438 26.5788 21.7687 25.573C22.3321 26.2072 23.1128 26.4081 23.9214 26.5215C25.1697 26.6964 26.3957 26.631 27.5553 26.1022C27.688 26.0416 27.8106 25.9612 27.9555 25.8796C28.0643 26.1722 28.0927 26.4675 28.0547 26.7682C27.9623 27.5003 27.5691 28.0658 26.9438 28.4945C26.6938 28.666 26.4292 28.8193 26.171 28.981C25.3777 29.478 25.163 30.0606 25.4611 30.9082C25.4682 30.929 25.4746 30.9496 25.4906 31C25.0855 30.8319 24.7897 30.5873 24.5642 30.2656C24.3261 29.9263 24.2128 29.5507 24.2069 29.1444C24.2039 28.9467 24.2039 28.7472 24.1752 28.5523C24.1051 28.077 23.8644 27.8643 23.4109 27.852C22.9455 27.8394 22.5773 28.1061 22.4797 28.526C22.4723 28.5582 22.4622 28.5904 22.4514 28.6279Z"
    />
    <path
        d="M18 25.4055C18 25.4055 20.3095 24.3628 22.6254 24.3628L24.3715 19.3545C24.4369 19.1123 24.6278 18.9476 24.8433 18.9476C25.0587 18.9476 25.2496 19.1123 25.315 19.3545L27.0611 24.3628C29.804 24.3628 31.6865 25.4055 31.6865 25.4055C31.6865 25.4055 27.7637 15.5013 27.756 15.4814C27.6434 15.1886 27.4534 15 27.1971 15H22.4898C22.2336 15 22.0512 15.1886 21.9309 15.4814C21.9224 15.5009 18 25.4055 18 25.4055Z"
    />
  </g>
</svg>

<svg xmlns="http://www.w3.org/2000/svg" viewBox="0 0 32 32"><path fill="#ff5d01" d="m13.844 7.536-1.288-1.072A2 2 0 0 0 11.276 6H4a2 2 0 0 0-2 2v16a2 2 0 0 0 2 2h24a2 2 0 0 0 2-2V10a2 2 0 0 0-2-2H15.124a2 2 0 0 1-1.28-.464" data-folderColor="Astro"/><path fill="#ffcdd2" d="M22.451 28.628c-.78-.66-1.007-2.05-.682-3.055.563.634 1.344.835 2.152.948 1.249.175 2.475.11 3.634-.419.133-.06.256-.14.4-.222.11.292.138.588.1.888-.093.732-.486 1.298-1.111 1.726-.25.172-.515.325-.773.487-.793.497-1.008 1.08-.71 1.927l.03.092a2.05 2.05 0 0 1-.927-.734 1.96 1.96 0 0 1-.357-1.122c-.003-.197-.003-.397-.032-.592-.07-.475-.31-.688-.764-.7-.466-.013-.834.254-.931.674q-.012.047-.029.102M18 25.406s2.31-1.043 4.625-1.043l1.747-5.008c.065-.243.256-.407.471-.407.216 0 .407.164.472.407l1.746 5.008c2.743 0 4.625 1.043 4.625 1.043l-3.93-9.925c-.113-.292-.303-.481-.559-.481H22.49c-.256 0-.439.189-.56.481z" data-folderIconColor="Astro"/></svg>
